X: 40642
T: Top It Off
R: slip jig
M: 9/8
K: Dmajor
|:B|A2F~F3d2A|Bcde2cd2B|A2D FGAd2A|BcdA2F~D3|
A2D~D3d2A|Bcde2cd2B|A2D FGAd2A|BcdA2FD2:|
|:g|f2Ad2cd2f|e2=cc2Bc2e|d2GB2GB2d|^c2AA2ea2g|
f2Ad2cd2f|e2=cc2Bc2e|d2A B^cde2c|d3d3d2:|

